static/assets/05e05756b592740a3670417b4df19ca9.svg

<?xml version="1.0" encoding="UTF-8" standalone="no" ?>
<!DOCTYPE svg PUBLIC "-//W3C//DTD SVG 1.1//EN" "http://www.w3.org/Graphics/SVG/1.1/DTD/svg11.dtd">
<svg xmlns="http://www.w3.org/2000/svg" xmlns:xlink="http://www.w3.org/1999/xlink" version="1.1" width="1080" height="1080" viewBox="0 0 1080 1080" xml:space="preserve">
<desc>Created with Fabric.js 5.2.4</desc>
<defs>
</defs>
<g transform="matrix(1 0 0 1 540 540)" id="f35919c2-e043-45ac-99a0-053168fc4f7c"  >
<rect style="stroke: none; stroke-width: 1; stroke-dasharray: none; stroke-linecap: butt; stroke-dashoffset: 0; stroke-linejoin: miter; stroke-miterlimit: 4; fill: rgb(255,255,255); fill-rule: nonzero; opacity: 1; visibility: hidden;" vector-effect="non-scaling-stroke"  x="-540" y="-540" rx="0" ry="0" width="1080" height="1080" />
</g>
<g transform="matrix(1 0 0 1 540 540)" id="1af1df3a-c3cc-493c-a385-82256aed1df0"  >
</g>
<g transform="matrix(NaN NaN NaN NaN 0 0)"  >
<g style=""   >
		<g transform="matrix(1 0 0 1 0 0)" id="bg"  >
<path style="stroke: none; stroke-width: 1; stroke-dasharray: none; stroke-linecap: butt; stroke-dashoffset: 0; stroke-linejoin: miter; stroke-miterlimit: 4; fill: rgb(0,0,0); fill-rule: nonzero; opacity: 1;" vector-effect="non-scaling-stroke"  transform=" translate(-26, -26)" d="M 41.4 5 C 44.5 5 47 7.5 47 10.6 L 47 41.4 C 47 44.5 44.5 47 41.4 47 L 10.6 47 C 7.5 47 5 44.5 5 41.4 L 5 10.6 C 5 7.5 7.5 5 10.6 5 L 41.4 5 z" stroke-linecap="round" />
</g>
		<g transform="matrix(1 0 0 1 -6.92 -0.1)" id="scratch-outline-2"  >
<path style="stroke: none; stroke-width: 1; stroke-dasharray: none; stroke-linecap: butt; stroke-dashoffset: 0; stroke-linejoin: miter; stroke-miterlimit: 4; fill: rgb(0,0,0); fill-rule: nonzero; opacity: 1;" vector-effect="non-scaling-stroke"  transform=" translate(-19.08, -25.9)" d="M 28.8 28.9 C 28.8 31.599999999999998 27.7 34.3 25.6 36.1 C 23.900000000000002 37.6 21.8 38.4 19.700000000000003 38.5 C 18.700000000000003 39.3 17.500000000000004 39.8 16.200000000000003 39.9 C 16.1 39.9 15.900000000000002 39.9 15.800000000000002 39.9 C 12.500000000000004 39.9 9.700000000000003 37.199999999999996 9.400000000000002 33.699999999999996 C 9.400000000000002 33.699999999999996 9.400000000000002 33.599999999999994 9.400000000000002 33.49999999999999 C 9.400000000000002 33.49999999999999 9.400000000000002 33.49999999999999 9.400000000000002 33.39999999999999 C 9.300000000000002 31.89999999999999 9.400000000000002 30.699999999999992 9.400000000000002 29.999999999999993 C 9.400000000000002 29.299999999999994 9.500000000000002 27.999999999999993 9.500000000000002 27.699999999999992 L 9.500000000000002 27.699999999999992 C 9.500000000000002 26.699999999999992 9.800000000000002 25.699999999999992 10.200000000000001 24.799999999999994 C 10.100000000000001 23.799999999999994 10.100000000000001 22.699999999999992 10.200000000000001 21.599999999999994 L 10.200000000000001 21.399999999999995 C 10.200000000000001 21.399999999999995 10.200000000000001 21.399999999999995 10.200000000000001 21.299999999999994 C 10.200000000000001 21.299999999999994 10.200000000000001 21.299999999999994 10.200000000000001 21.199999999999992 C 10.3 20.199999999999992 10.500000000000002 18.699999999999992 11.3 16.999999999999993 C 12.700000000000001 14.299999999999994 15.3 12.699999999999992 18.3 12.699999999999992 L 18.400000000000002 12.699999999999992 C 19.3 12.199999999999992 20.400000000000002 11.899999999999991 21.500000000000004 11.899999999999991 L 21.600000000000005 11.899999999999991 C 25.100000000000005 11.999999999999991 27.900000000000006 14.999999999999991 27.900000000000006 18.59999999999999 C 27.900000000000006 18.59999999999999 27.800000000000004 22.999999999999993 27.600000000000005 24.499999999999993 C 28.4 25.9 28.7 27.4 28.8 28.9" stroke-linecap="round" />
</g>
		<g transform="matrix(1 0 0 1 -6.97 0)" id="scratch-outline-1"  >
<path style="stroke: none; stroke-width: 1; stroke-dasharray: none; stroke-linecap: butt; stroke-dashoffset: 0; stroke-linejoin: miter; stroke-miterlimit: 4; fill: rgb(0,0,0); fill-rule: nonzero; opacity: 1;" vector-effect="non-scaling-stroke"  transform=" translate(-19.03, -26)" d="M 25.8 29 C 25.8 30.8 25 32.6 23.6 33.8 C 22.400000000000002 34.9 20.8 35.5 19.3 35.5 C 19 35.5 18.8 35.5 18.5 35.4 C 18.4 35.5 18.4 35.6 18.3 35.6 C 17.7 36.300000000000004 16.8 36.7 15.9 36.800000000000004 C 15.8 36.800000000000004 15.8 36.800000000000004 15.700000000000001 36.800000000000004 C 13.9 36.800000000000004 12.400000000000002 35.300000000000004 12.3 33.50000000000001 C 12.3 33.50000000000001 12.3 33.400000000000006 12.3 33.400000000000006 L 12.3 33.400000000000006 C 12.200000000000001 32.10000000000001 12.3 31.000000000000007 12.3 30.300000000000004 C 12.3 29.500000000000004 12.4 28.200000000000003 12.4 27.900000000000006 C 12.4 27.000000000000007 12.700000000000001 26.200000000000006 13.3 25.500000000000007 C 13 24.500000000000007 12.9 23.400000000000006 13.100000000000001 22.000000000000007 L 13.100000000000001 21.800000000000008 C 13.100000000000001 21.800000000000008 13.100000000000001 21.800000000000008 13.100000000000001 21.800000000000008 C 13.200000000000001 21.000000000000007 13.3 19.800000000000008 13.900000000000002 18.700000000000006 C 14.800000000000002 17.000000000000007 16.400000000000002 16.000000000000007 18.300000000000004 16.000000000000007 C 18.400000000000006 16.000000000000007 18.500000000000004 16.000000000000007 18.600000000000005 16.000000000000007 C 18.800000000000004 16.000000000000007 19.000000000000004 16.000000000000007 19.200000000000006 16.10000000000001 C 19.800000000000008 15.500000000000009 20.700000000000006 15.200000000000008 21.600000000000005 15.200000000000008 C 23.500000000000004 15.200000000000008 25.000000000000004 16.800000000000008 25.000000000000004 18.800000000000008 C 25.000000000000004 18.800000000000008 24.800000000000004 24.000000000000007 24.800000000000004 24.500000000000007 C 24.800000000000004 24.800000000000008 24.700000000000003 25.000000000000007 24.600000000000005 25.300000000000008 C 25.3 26.2 25.8 27.5 25.8 29" stroke-linecap="round" />
</g>
		<g transform="matrix(1 0 0 1 -7.27 0.15)" id="scratch-fill"  >
<path style="stroke: none; stroke-width: 1; stroke-dasharray: none; stroke-linecap: butt; stroke-dashoffset: 0; stroke-linejoin: miter; stroke-miterlimit: 4; fill: rgb(0,0,0); fill-rule: nonzero; opacity: 1;" vector-effect="non-scaling-stroke"  transform=" translate(-18.73, -26.15)" d="M 18.3 25.3 C 17.400000000000002 25.2 16.900000000000002 24.5 17.2 22.6 L 17.2 22.400000000000002 C 17.4 20.700000000000003 17.599999999999998 20.400000000000002 18.3 20.400000000000002 C 18.5 20.400000000000002 18.8 20.6 19 20.8 C 19.2 21.1 19.8 21.5 20.1 22.2 C 20.3 22.7 20.400000000000002 23.099999999999998 20.400000000000002 23.5 L 20.400000000000002 24 L 20.400000000000002 24 C 20.500000000000004 24.3 20.700000000000003 24.6 21.000000000000004 24.6 C 21.400000000000002 24.700000000000003 21.800000000000004 24.400000000000002 21.900000000000002 24 C 21.900000000000002 23.9 22.1 18.9 22.1 18.8 C 22.1 18.400000000000002 21.8 18 21.3 18 C 20.900000000000002 18 20.5 18.4 20.5 18.8 C 20.5 18.8 20.5 19.5 20.5 20.2 C 19.9 19.5 19.1 18.9 18.2 18.8 C 15.899999999999999 18.7 15.6 20.900000000000002 15.399999999999999 22.2 L 15.399999999999999 22.4 C 15.099999999999998 24.9 15.899999999999999 26.599999999999998 17.799999999999997 26.9 C 19.9 27.2 21.299999999999997 27.7 21.299999999999997 29.099999999999998 C 21.299999999999997 29.599999999999998 20.999999999999996 30.2 20.599999999999998 30.599999999999998 C 19.999999999999996 31.099999999999998 19.299999999999997 31.299999999999997 18.599999999999998 31.2 C 18.4 31.2 18.2 31.099999999999998 17.999999999999996 31 C 17.699999999999996 30.8 16.999999999999996 30.4 16.699999999999996 29.9 C 16.399999999999995 29.5 16.299999999999997 28.799999999999997 16.299999999999997 28.4 C 16.299999999999997 28.2 16.299999999999997 28.099999999999998 16.299999999999997 28.099999999999998 C 16.299999999999997 27.7 15.999999999999996 27.299999999999997 15.499999999999996 27.299999999999997 C 15.099999999999996 27.299999999999997 14.699999999999996 27.599999999999998 14.699999999999996 28.099999999999998 C 14.699999999999996 28.099999999999998 14.699999999999996 29.7 14.599999999999996 30.599999999999998 C 14.499999999999996 32.099999999999994 14.599999999999996 33.4 14.599999999999996 33.5 C 14.599999999999996 33.9 14.999999999999996 34.3 15.399999999999997 34.3 C 15.799999999999997 34.3 16.199999999999996 33.9 16.099999999999998 33.4 C 16.099999999999998 33.4 16.099999999999998 32.8 16.099999999999998 31.9 C 16.7 32.3 17.4 32.6 18.299999999999997 32.8 C 19.499999999999996 33 20.599999999999998 32.699999999999996 21.599999999999998 31.799999999999997 C 22.4 31.099999999999998 22.9 30.099999999999998 22.9 29.099999999999998 C 23.1 26 19.9 25.5 18.3 25.3" stroke-linecap="round" />
</g>
		<g transform="matrix(1 0 0 1 11.09 -0.06)" id="signal"  >
<path style="stroke: none; stroke-width: 1; stroke-dasharray: none; stroke-linecap: butt; stroke-dashoffset: 0; stroke-linejoin: miter; stroke-miterlimit: 4; fill: rgb(0,0,0); fill-rule: nonzero; opacity: 1;" vector-effect="non-scaling-stroke"  transform=" translate(-37.09, -25.94)" d="M 37.7 36.9 C 37.5 36.9 37.300000000000004 36.8 37.2 36.699999999999996 C 36.900000000000006 36.4 36.900000000000006 35.9 37.2 35.599999999999994 C 39.800000000000004 32.99999999999999 41.2 29.599999999999994 41.2 25.999999999999993 C 41.2 22.39999999999999 39.800000000000004 18.89999999999999 37.2 16.299999999999994 C 36.900000000000006 15.999999999999993 36.900000000000006 15.499999999999993 37.2 15.199999999999994 C 37.5 14.899999999999993 38 14.899999999999993 38.2 15.199999999999994 C 41 18.099999999999994 42.6 21.899999999999995 42.6 25.89999999999999 C 42.6 29.89999999999999 41 33.79999999999999 38.2 36.599999999999994 C 38.1 36.9 37.9 36.9 37.7 36.9 z M 35 33.5 C 34.8 33.5 34.6 33.4 34.5 33.3 C 34.2 33 34.2 32.5 34.5 32.199999999999996 C 36.2 30.499999999999996 37.1 28.299999999999997 37.1 25.899999999999995 C 37.1 23.499999999999996 36.2 21.299999999999997 34.5 19.599999999999994 C 34.2 19.299999999999994 34.2 18.799999999999994 34.5 18.499999999999993 C 34.8 18.199999999999992 35.3 18.199999999999992 35.5 18.499999999999993 C 37.4 20.499999999999993 38.5 23.099999999999994 38.5 25.799999999999994 C 38.5 28.599999999999994 37.4 31.199999999999996 35.5 33.099999999999994 C 35.4 33.5 35.2 33.5 35 33.5 z M 32.3 30.1 C 32.099999999999994 30.1 31.9 30 31.799999999999997 29.900000000000002 C 31.499999999999996 29.6 31.499999999999996 29.1 31.799999999999997 28.8 C 32.599999999999994 28 33 27 33 25.900000000000002 C 33 24.8 32.6 23.8 31.8 23.000000000000004 C 31.5 22.700000000000003 31.5 22.200000000000003 31.8 21.900000000000002 C 32.1 21.6 32.6 21.6 32.8 21.900000000000002 C 33.8 22.900000000000002 34.4 24.3 34.4 25.8 C 34.4 27.3 33.8 28.7 32.8 29.7 C 32.7 30.1 32.5 30.1 32.3 30.1 z" stroke-linecap="round" />
</g>
</g>
</g>
<g transform="matrix(5.96 0 0 5.96 540 540)" id="a81dd8ec-a127-4916-a6bc-0d363bb8ec0a"  >
<circle style="stroke: rgb(0,0,0); stroke-width: 0; stroke-dasharray: none; stroke-linecap: butt; stroke-dashoffset: 0; stroke-linejoin: miter; stroke-miterlimit: 4; fill: rgb(97,88,84); fill-rule: nonzero; opacity: 1;" vector-effect="non-scaling-stroke"  cx="0" cy="0" r="35" />
</g>
<g transform="matrix(1 0 0 1 466.73 540)" style="filter: url(#SVGID_269);" id="c3ebc90e-df8b-4a22-a322-f2254be56e96"  >
<filter id="SVGID_269" y="-24%" height="148%" x="-21%" width="142%" >
	<feGaussianBlur in="SourceAlpha" stdDeviation="5"></feGaussianBlur>
	<feOffset dx="0" dy="0" result="oBlur" ></feOffset>
	<feFlood flood-color="rgb(0,0,0)" flood-opacity="1"/>
	<feComposite in2="oBlur" operator="in" />
	<feMerge>
		<feMergeNode></feMergeNode>
		<feMergeNode in="SourceGraphic"></feMergeNode>
	</feMerge>
</filter>
		<text xml:space="preserve" font-family="Raleway" font-size="200" font-style="normal" font-weight="900" style="stroke: none; stroke-width: 1; stroke-dasharray: none; stroke-linecap: butt; stroke-dashoffset: 0; stroke-linejoin: miter; stroke-miterlimit: 4; fill: rgb(78,223,78); fill-rule: nonzero; opacity: 1; white-space: pre;" ><tspan x="-40.2" y="62.83" >f</tspan></text>
</g>
<g transform="matrix(1.9 0 0 1.9 605.85 540)"  >
<g style="" vector-effect="non-scaling-stroke"   >
		<g transform="matrix(1 0 0 1 -24.17 24.17)"  >
<path style="stroke: none; stroke-width: 1; stroke-dasharray: none; stroke-linecap: butt; stroke-dashoffset: 0; stroke-linejoin: miter; stroke-miterlimit: 4; fill: rgb(255,255,255); fill-rule: nonzero; opacity: 1;" vector-effect="non-scaling-stroke"  transform=" translate(-25.83, -74.17)" d="M 25.828 61.903 C 32.604 61.903 38.096000000000004 67.395 38.096000000000004 74.169 C 38.096000000000004 80.947 32.604000000000006 86.44 25.828000000000003 86.44 C 19.054000000000002 86.44 13.560000000000002 80.948 13.560000000000002 74.169 C 13.56 67.396 19.054 61.903 25.828 61.903 z" stroke-linecap="round" />
</g>
		<g transform="matrix(1 0 0 1 0 0)"  >
<path style="stroke: none; stroke-width: 1; stroke-dasharray: none; stroke-linecap: butt; stroke-dashoffset: 0; stroke-linejoin: miter; stroke-miterlimit: 4; fill: rgb(255,255,255); fill-rule: nonzero; opacity: 1;" vector-effect="non-scaling-stroke"  transform=" translate(-50, -50)" d="M 20.339 27.172 C 16.584999999999997 27.172 13.558999999999997 24.092 13.558999999999997 20.339 C 13.558999999999997 16.584999999999997 16.584999999999997 13.561 20.339 13.561 C 38.599000000000004 13.561 55.126 20.954 67.114 32.887 C 79.045 44.873000000000005 86.43900000000001 61.397999999999996 86.43900000000001 79.662 C 86.43900000000001 83.41300000000001 83.414 86.43900000000001 79.662 86.43900000000001 C 75.906 86.43900000000001 72.82700000000001 83.41300000000001 72.82700000000001 79.662 C 72.82700000000001 65.153 67.00200000000001 52.04600000000001 57.48000000000001 42.52 C 47.956 33.055 34.848 27.172 20.339 27.172 z" stroke-linecap="round" />
</g>
		<g transform="matrix(1 0 0 1 -10.67 10.7)"  >
<path style="stroke: none; stroke-width: 1; stroke-dasharray: none; stroke-linecap: butt; stroke-dashoffset: 0; stroke-linejoin: miter; stroke-miterlimit: 4; fill: rgb(255,255,255); fill-rule: nonzero; opacity: 1;" vector-effect="non-scaling-stroke"  transform=" translate(-39.33, -60.7)" d="M 20.339 48.515 C 16.584999999999997 48.515 13.558999999999997 45.491 13.558999999999997 41.737 C 13.558999999999997 37.984 16.584999999999997 34.96 20.339 34.96 C 32.719 34.96 43.866 39.945 51.988 48.012 C 60.054 56.134 65.095 67.28 65.095 79.663 C 65.095 83.414 62.015 86.44 58.263 86.44 C 54.507999999999996 86.44 51.485 83.414 51.485 79.663 C 51.485 71.036 48.010999999999996 63.306 42.353 57.646 C 36.753 52.046 28.966 48.515 20.339 48.515 z" stroke-linecap="round" />
</g>
</g>
</g>
</svg>
</g>
</svg>

<?xml version="1.0" encoding="utf-8"?>
<!-- Generator: Adobe Illustrator 22.1.0, SVG Export Plug-In . SVG Version: 6.00 Build 0)  -->
<svg width="52px" height="52px" viewBox="0 0 52 52" version="1.1" id="Layer_1" xmlns="http://www.w3.org/2000/svg" xmlns:xlink="http://www.w3.org/1999/xlink" x="0px" y="0px"
	 style="enable-background:new 0 0 52 52;" xml:space="preserve">
<style type="text/css">
	.st0{fill:#0FBD8C;}
	.st1{fill:#FFFFFF;}
	.st2{fill:#F9A83A;}
</style>
<title>Scratch Link</title>
<desc>Created with Sketch.</desc>
<g id="_x35_2x52-for-the-dialog">
	<g id="Group">
		<path id="bg" class="st0" d="M41.4,5c3.1,0,5.6,2.5,5.6,5.6v30.8c0,3.1-2.5,5.6-5.6,5.6H10.6C7.5,47,5,44.5,5,41.4V10.6
			C5,7.5,7.5,5,10.6,5H41.4z"/>
		<path id="scratch-outline-2" class="st1" d="M28.8,28.9c0,2.7-1.1,5.4-3.2,7.2c-1.7,1.5-3.8,2.3-5.9,2.4c-1,0.8-2.2,1.3-3.5,1.4
			c-0.1,0-0.3,0-0.4,0c-3.3,0-6.1-2.7-6.4-6.2c0,0,0-0.1,0-0.2c0,0,0,0,0-0.1c-0.1-1.5,0-2.7,0-3.4c0-0.7,0.1-2,0.1-2.3v0
			c0-1,0.3-2,0.7-2.9c-0.1-1-0.1-2.1,0-3.2l0-0.2c0,0,0,0,0-0.1c0,0,0,0,0-0.1c0.1-1,0.3-2.5,1.1-4.2c1.4-2.7,4-4.3,7-4.3h0.1
			c0.9-0.5,2-0.8,3.1-0.8h0.1c3.5,0.1,6.3,3.1,6.3,6.7c0,0-0.1,4.4-0.3,5.9C28.4,25.9,28.7,27.4,28.8,28.9"/>
		<path id="scratch-outline-1" class="st2" d="M25.8,29c0,1.8-0.8,3.6-2.2,4.8c-1.2,1.1-2.8,1.7-4.3,1.7c-0.3,0-0.5,0-0.8-0.1
			c-0.1,0.1-0.1,0.2-0.2,0.2c-0.6,0.7-1.5,1.1-2.4,1.2c-0.1,0-0.1,0-0.2,0c-1.8,0-3.3-1.5-3.4-3.3c0,0,0-0.1,0-0.1l0,0
			c-0.1-1.3,0-2.4,0-3.1c0-0.8,0.1-2.1,0.1-2.4c0-0.9,0.3-1.7,0.9-2.4c-0.3-1-0.4-2.1-0.2-3.5l0-0.2c0,0,0,0,0,0
			c0.1-0.8,0.2-2,0.8-3.1c0.9-1.7,2.5-2.7,4.4-2.7c0.1,0,0.2,0,0.3,0c0.2,0,0.4,0,0.6,0.1c0.6-0.6,1.5-0.9,2.4-0.9
			c1.9,0,3.4,1.6,3.4,3.6c0,0-0.2,5.2-0.2,5.7c0,0.3-0.1,0.5-0.2,0.8C25.3,26.2,25.8,27.5,25.8,29"/>
		<path id="scratch-fill" class="st1" d="M18.3,25.3c-0.9-0.1-1.4-0.8-1.1-2.7l0-0.2c0.2-1.7,0.4-2,1.1-2c0.2,0,0.5,0.2,0.7,0.4
			c0.2,0.3,0.8,0.7,1.1,1.4c0.2,0.5,0.3,0.9,0.3,1.3l0,0.5v0c0.1,0.3,0.3,0.6,0.6,0.6c0.4,0.1,0.8-0.2,0.9-0.6
			c0-0.1,0.2-5.1,0.2-5.2c0-0.4-0.3-0.8-0.8-0.8c-0.4,0-0.8,0.4-0.8,0.8c0,0,0,0.7,0,1.4c-0.6-0.7-1.4-1.3-2.3-1.4
			c-2.3-0.1-2.6,2.1-2.8,3.4l0,0.2c-0.3,2.5,0.5,4.2,2.4,4.5c2.1,0.3,3.5,0.8,3.5,2.2c0,0.5-0.3,1.1-0.7,1.5c-0.6,0.5-1.3,0.7-2,0.6
			c-0.2,0-0.4-0.1-0.6-0.2c-0.3-0.2-1-0.6-1.3-1.1c-0.3-0.4-0.4-1.1-0.4-1.5c0-0.2,0-0.3,0-0.3c0-0.4-0.3-0.8-0.8-0.8
			c-0.4,0-0.8,0.3-0.8,0.8c0,0,0,1.6-0.1,2.5c-0.1,1.5,0,2.8,0,2.9c0,0.4,0.4,0.8,0.8,0.8c0.4,0,0.8-0.4,0.7-0.9c0,0,0-0.6,0-1.5
			c0.6,0.4,1.3,0.7,2.2,0.9c1.2,0.2,2.3-0.1,3.3-1c0.8-0.7,1.3-1.7,1.3-2.7C23.1,26,19.9,25.5,18.3,25.3"/>
		<path id="signal" class="st1" d="M37.7,36.9c-0.2,0-0.4-0.1-0.5-0.2c-0.3-0.3-0.3-0.8,0-1.1c2.6-2.6,4-6,4-9.6
			c0-3.6-1.4-7.1-4-9.7c-0.3-0.3-0.3-0.8,0-1.1c0.3-0.3,0.8-0.3,1,0c2.8,2.9,4.4,6.7,4.4,10.7c0,4-1.6,7.9-4.4,10.7
			C38.1,36.9,37.9,36.9,37.7,36.9z M35,33.5c-0.2,0-0.4-0.1-0.5-0.2c-0.3-0.3-0.3-0.8,0-1.1c1.7-1.7,2.6-3.9,2.6-6.3
			c0-2.4-0.9-4.6-2.6-6.3c-0.3-0.3-0.3-0.8,0-1.1c0.3-0.3,0.8-0.3,1,0c1.9,2,3,4.6,3,7.3c0,2.8-1.1,5.4-3,7.3
			C35.4,33.5,35.2,33.5,35,33.5z M32.3,30.1c-0.2,0-0.4-0.1-0.5-0.2c-0.3-0.3-0.3-0.8,0-1.1c0.8-0.8,1.2-1.8,1.2-2.9
			c0-1.1-0.4-2.1-1.2-2.9c-0.3-0.3-0.3-0.8,0-1.1c0.3-0.3,0.8-0.3,1,0c1,1,1.6,2.4,1.6,3.9c0,1.5-0.6,2.9-1.6,3.9
			C32.7,30.1,32.5,30.1,32.3,30.1z"/>
	</g>
</g>
</svg>
